X: 100609
T: James Ryan's Favorite
M: 4/4
L: 1/8
S: Luke O'Malley Volume 1
Z: B.Black
R: reel
K: Gmix
BdGA BGdG | AcFG AFcF | (3Bcd GA BGdG |\
(3ABc FG AGGA |
Bdd2 BGdG | AFF2 AcBA | GABd gbag |fdcA BG G2 ||
g^fga g^fde |fefg fdcf |d2 ga gfde|fdcA BG G2 |
g^fga g^fde |fefg fdcA |GABd gbag|fdcA BG G2 ||
